img/page/main-block/partners/04.svg

<svg width="295" height="59" viewBox="0 0 295 59" fill="none" xmlns="http://www.w3.org/2000/svg">
<path d="M41.8181 48.8306L2.33861 21.5977C-1.66215 18.8381 -0.302154 13.0922 4.6867 11.741L46.6463 0.352723C47.5351 0.0320001 48.4876 -0.0721106 49.4248 0.0490339C50.3619 0.170178 51.2566 0.513083 52.0347 1.04929C52.8127 1.58549 53.4517 2.29953 53.8985 3.13215C54.3453 3.96476 54.5871 4.89194 54.6038 5.83672L52.1171 44.4557C51.8222 49.0397 45.8188 51.5902 41.8181 48.8306Z" fill="#E9327C"/>
<path d="M29.2964 55.5531L6.03784 10.0681C5.50618 9.02755 5.27222 7.86037 5.36177 6.69528C5.45132 5.5302 5.86089 4.41247 6.54532 3.46538C7.22975 2.51828 8.16245 1.7786 9.24056 1.32792C10.3187 0.87723 11.5003 0.733045 12.6552 0.911259L55.7591 7.56379C56.7515 7.71697 57.6933 8.10351 58.5072 8.69164C59.3211 9.27976 59.9838 10.0527 60.4407 10.9468C60.8977 11.841 61.1359 12.8308 61.1357 13.8349C61.1356 14.8391 60.8971 15.8288 60.4398 16.7228L40.5835 55.5553C40.0503 56.5929 39.2414 57.4634 38.2456 58.0711C37.2498 58.6788 36.1058 59.0002 34.9393 59C33.7727 58.9998 32.6288 58.6779 31.6333 58.0698C30.6378 57.4617 29.8292 56.5909 29.2964 55.5531Z" fill="#1DACE3"/>
<path d="M54.4982 7.36837L33.0111 4.052L6.62985 11.2151L17.1599 31.8153L41.8181 48.8306C42.3621 49.2018 42.9605 49.4861 43.5918 49.6735L52.9577 31.3575L54.4982 7.36837Z" fill="#3A68B8"/>
<path d="M163.335 12.6849C163.335 11.8862 163.572 11.1055 164.016 10.4414C164.459 9.77734 165.09 9.25975 165.828 8.95411C166.566 8.64847 167.378 8.56851 168.161 8.72432C168.944 8.88014 169.664 9.26474 170.229 9.82949C170.793 10.3942 171.178 11.1138 171.334 11.8971C171.49 12.6804 171.41 13.4924 171.104 14.2302C170.798 14.9681 170.281 15.5988 169.617 16.0425C168.953 16.4862 168.172 16.7231 167.373 16.7231C166.306 16.7122 165.285 16.2832 164.53 15.5283C163.775 14.7733 163.346 13.7525 163.335 12.6849ZM164.009 18.6971H170.74V41.1304H164.009V18.6971Z" fill="white"/>
<path d="M199.811 29.9139C199.889 31.3967 199.673 32.8803 199.176 34.2795C198.679 35.6786 197.91 36.9656 196.913 38.0666C195.917 39.1675 194.713 40.0605 193.37 40.6944C192.027 41.3282 190.572 41.6904 189.089 41.7599C187.841 41.8279 186.594 41.6174 185.438 41.144C184.282 40.6705 183.245 39.9458 182.404 39.0223V50.1048H175.674V18.6972H182.404V20.8055C183.245 19.8824 184.282 19.1581 185.438 18.685C186.595 18.2119 187.842 18.0019 189.089 18.0701C190.572 18.1394 192.027 18.5012 193.37 19.1348C194.713 19.7685 195.917 20.6613 196.913 21.7621C197.91 22.8628 198.679 24.1497 199.176 25.5487C199.673 26.9477 199.889 28.4312 199.811 29.9139ZM193.081 29.9139C193.055 28.8636 192.719 27.8444 192.116 26.9839C191.513 26.1233 190.67 25.4597 189.692 25.076C188.714 24.6924 187.645 24.6057 186.617 24.8269C185.59 25.048 184.651 25.5672 183.918 26.3195C183.184 27.0717 182.689 28.0236 182.494 29.0559C182.299 30.0883 182.412 31.1553 182.82 32.1234C183.229 33.0915 183.913 33.9176 184.789 34.4985C185.664 35.0794 186.692 35.3892 187.742 35.3891C188.464 35.4216 189.184 35.3011 189.856 35.0356C190.527 34.7701 191.135 34.3655 191.639 33.8484C192.143 33.3314 192.532 32.7135 192.781 32.0354C193.029 31.3573 193.132 30.6343 193.081 29.9139Z" fill="white"/>
<path d="M220.583 34.3967C220.583 39.5572 216.096 41.7556 211.25 41.7556C209.292 41.9328 207.327 41.5185 205.607 40.5663C203.888 39.6141 202.493 38.1679 201.605 36.4147L207.436 33.0961C207.673 33.9065 208.181 34.6109 208.876 35.0916C209.57 35.5723 210.408 35.8001 211.25 35.7369C212.865 35.7369 213.671 35.2417 213.671 34.3461C213.671 31.877 202.634 33.1797 202.634 25.4159C202.634 20.5261 206.761 18.0592 211.437 18.0592C213.191 18.0041 214.928 18.4203 216.466 19.2645C218.005 20.1086 219.289 21.3498 220.185 22.8587L214.443 25.955C214.192 25.3662 213.773 24.8643 213.238 24.5121C212.704 24.1598 212.077 23.9729 211.437 23.9745C210.271 23.9745 209.553 24.4146 209.553 25.231C209.547 27.8058 220.583 26.1003 220.583 34.3967Z" fill="white"/>
<path d="M245.179 18.6968V41.1301H238.45V39.0175C237.672 39.9481 236.685 40.6814 235.57 41.1572C234.455 41.633 233.242 41.8379 232.033 41.7551C227.501 41.7551 223.644 38.5245 223.644 32.4662V18.6968H230.373V31.4847C230.317 32.0194 230.377 32.56 230.551 33.0688C230.724 33.5777 231.007 34.0426 231.378 34.4312C231.75 34.8198 232.202 35.1227 232.703 35.3188C233.203 35.515 233.741 35.5996 234.277 35.5669C236.744 35.5669 238.458 34.1321 238.458 30.9455V18.6968H245.179Z" fill="white"/>
<path d="M283.752 27.3539V41.1299H277.022V27.9393C277.022 25.6968 275.944 24.2598 273.792 24.2598C271.547 24.2598 270.293 25.831 270.293 28.4784V41.1299H263.561V27.9393C263.561 25.6968 262.485 24.2598 260.331 24.2598C258.088 24.2598 256.832 25.831 256.832 28.4784V41.1299H250.102V18.6966H256.842V20.752C257.54 19.8367 258.456 19.1109 259.506 18.6407C260.556 18.1706 261.707 17.9711 262.855 18.0606C264.007 18.0043 265.153 18.2473 266.184 18.766C267.214 19.2847 268.092 20.0614 268.733 21.0204C269.478 20.017 270.467 19.2192 271.605 18.7016C272.743 18.1839 273.993 17.9634 275.24 18.0606C280.389 18.0694 283.752 21.7467 283.752 27.3539Z" fill="white"/>
<path d="M289.454 18.5582C292.213 18.5582 294.449 16.3216 294.449 13.5627C294.449 10.8038 292.213 8.56726 289.454 8.56726C286.695 8.56726 284.458 10.8038 284.458 13.5627C284.458 16.3216 286.695 18.5582 289.454 18.5582Z" fill="white"/>
<path d="M71.4542 8.37817H78.1859V41.1303H71.4542V8.37817ZM81.9974 29.9136C81.99 27.5617 82.6807 25.2605 83.9819 23.3014C85.2832 21.3422 87.1365 19.8133 89.3073 18.9081C91.478 18.0029 93.8686 17.7623 96.1762 18.2166C98.4838 18.6709 100.605 19.7997 102.27 21.4601C103.936 23.1205 105.072 25.2379 105.533 27.5441C105.995 29.8503 105.762 32.2415 104.863 34.4151C103.965 36.5887 102.442 38.4469 100.487 39.7543C98.5318 41.0618 96.2328 41.7597 93.8809 41.7597C92.3188 41.7764 90.7691 41.4817 89.3223 40.8927C87.8754 40.3038 86.5604 39.4324 85.454 38.3296C84.3477 37.2267 83.4722 35.9145 82.8787 34.4695C82.2852 33.0245 81.9856 31.4757 81.9974 29.9136ZM99.048 29.9136C99.0216 28.8991 98.6966 27.9149 98.1138 27.0841C97.5309 26.2533 96.716 25.6128 95.7711 25.2427C94.8261 24.8726 93.793 24.7894 92.8009 25.0034C91.8089 25.2175 90.902 25.7192 90.1937 26.446C89.4853 27.1728 89.007 28.0923 88.8185 29.0895C88.63 30.0867 88.7398 31.1173 89.134 32.0525C89.5282 32.9876 90.1894 33.7858 91.0349 34.3471C91.8804 34.9085 92.8726 35.208 93.8875 35.2084C94.5824 35.2282 95.2739 35.1038 95.9184 34.843C96.5629 34.5823 97.1463 34.1909 97.632 33.6934C98.1177 33.196 98.495 32.6033 98.7402 31.9527C98.9855 31.3022 99.0932 30.6079 99.0568 29.9136H99.048ZM132.606 18.6904V40.0036C132.606 47.5407 126.728 50.7251 120.762 50.7251C118.662 50.8836 116.559 50.4609 114.683 49.5032C112.807 48.5456 111.231 47.09 110.128 45.2961L115.87 41.9753C116.333 42.9116 117.071 43.6841 117.986 44.1894C118.9 44.6948 119.947 44.9089 120.986 44.8032C121.649 44.8937 122.325 44.8342 122.962 44.629C123.599 44.4237 124.182 44.078 124.668 43.6174C125.154 43.1567 125.53 42.5928 125.769 41.9674C126.008 41.3419 126.103 40.6708 126.048 40.0036V37.9394C125.259 38.9034 124.256 39.6693 123.118 40.1756C121.981 40.682 120.74 40.9147 119.496 40.8552C116.535 40.7632 113.726 39.5222 111.664 37.3951C109.602 35.268 108.449 32.4217 108.449 29.4592C108.449 26.4967 109.602 23.6504 111.664 21.5233C113.726 19.3962 116.535 18.1552 119.496 18.0632C120.74 18.0037 121.981 18.2364 123.118 18.7428C124.256 19.2491 125.259 20.015 126.048 20.979V18.6904H132.606ZM126.056 29.4581C126.101 28.3746 125.82 27.3026 125.25 26.3799C124.68 25.4572 123.848 24.726 122.859 24.2804C121.87 23.8348 120.771 23.6951 119.702 23.8792C118.634 24.0633 117.645 24.5629 116.862 25.3137C116.08 26.0645 115.54 27.0322 115.311 28.0923C115.083 29.1525 115.178 30.2566 115.582 31.2628C115.986 32.2691 116.682 33.1313 117.581 33.7387C118.479 34.3461 119.539 34.6709 120.623 34.6714C121.33 34.7211 122.04 34.6223 122.706 34.3813C123.373 34.1403 123.982 33.7624 124.493 33.272C125.005 32.7816 125.409 32.1894 125.678 31.5337C125.947 30.878 126.076 30.1732 126.056 29.4647V29.4581ZM136.417 29.8982C136.41 27.5463 137.1 25.2451 138.402 23.286C139.703 21.3268 141.556 19.7979 143.727 18.8927C145.898 17.9875 148.288 17.7469 150.596 18.2012C152.903 18.6554 155.024 19.7843 156.69 21.4447C158.356 23.1051 159.491 25.2225 159.953 27.5287C160.414 29.8349 160.181 32.2261 159.283 34.3997C158.385 36.5733 156.861 38.4315 154.906 39.7389C152.951 41.0463 150.652 41.7443 148.3 41.7443C146.74 41.7609 145.191 41.4667 143.745 40.8787C142.3 40.2908 140.985 39.4208 139.879 38.3196C138.773 37.2184 137.897 35.908 137.303 34.4648C136.708 33.0215 136.407 31.4744 136.417 29.9136V29.8982ZM153.468 29.8982C153.442 28.8831 153.117 27.8981 152.534 27.0666C151.951 26.2351 151.136 25.594 150.19 25.2235C149.245 24.853 148.211 24.7695 147.218 24.9836C146.226 25.1976 145.318 25.6996 144.609 26.4268C143.901 27.1541 143.422 28.0742 143.234 29.072C143.045 30.0698 143.155 31.1011 143.55 32.0368C143.944 32.9724 144.606 33.7709 145.452 34.3323C146.299 34.8937 147.292 35.1931 148.307 35.193C149 35.2114 149.689 35.0865 150.331 34.8261C150.974 34.5658 151.555 34.1756 152.04 33.6799C152.524 33.1843 152.901 32.5939 153.147 31.9458C153.393 31.2977 153.502 30.6059 153.468 29.9136V29.8982Z" fill="white"/>
</svg>

<svg width="295" height="59" fill="none" xmlns="http://www.w3.org/2000/svg"><path d="M41.818 48.83 2.338 21.599c-4-2.76-2.64-8.506 2.349-9.857L46.647.353a5.942 5.942 0 0 1 7.957 5.484l-2.487 38.619c-.295 4.584-6.298 7.134-10.299 4.375Z" fill="#E9327C"/><path d="M29.296 55.553 6.038 10.068A6.344 6.344 0 0 1 12.655.911L55.76 7.564a6.344 6.344 0 0 1 4.68 9.159L40.585 55.555a6.344 6.344 0 0 1-11.288-.002Z" fill="#1DACE3"/><path d="M54.498 7.368 33.011 4.052 6.63 11.215l10.53 20.6 24.658 17.016a6.356 6.356 0 0 0 1.774.842l9.366-18.316 1.54-23.989Z" fill="#3A68B8"/><path d="M163.335 12.685a4.036 4.036 0 0 1 4.826-3.96 4.042 4.042 0 0 1 3.173 3.172 4.034 4.034 0 0 1-1.717 4.146 4.04 4.04 0 0 1-2.244.68 4.08 4.08 0 0 1-4.038-4.038Zm.674 6.012h6.731V41.13h-6.731V18.697ZM199.811 29.914a11.274 11.274 0 0 1-2.898 8.153 11.257 11.257 0 0 1-7.824 3.693 8.424 8.424 0 0 1-6.685-2.738v11.083h-6.73V18.697h6.73v2.108a8.418 8.418 0 0 1 6.685-2.735 11.266 11.266 0 0 1 10.087 7.479c.497 1.399.713 2.882.635 4.365Zm-6.73 0a5.336 5.336 0 0 0-3.389-4.838 5.342 5.342 0 1 0-1.95 10.313 5.124 5.124 0 0 0 5.039-3.354 5.124 5.124 0 0 0 .3-2.121ZM220.583 34.397c0 5.16-4.487 7.359-9.333 7.359a9.821 9.821 0 0 1-9.645-5.341l5.831-3.319a3.683 3.683 0 0 0 3.814 2.64c1.615 0 2.421-.494 2.421-1.39 0-2.469-11.037-1.166-11.037-8.93 0-4.89 4.127-7.357 8.803-7.357a9.812 9.812 0 0 1 8.748 4.8l-5.742 3.096a3.256 3.256 0 0 0-3.006-1.98c-1.166 0-1.884.44-1.884 1.256-.006 2.575 11.03.87 11.03 9.166ZM245.179 18.697V41.13h-6.729v-2.113a7.687 7.687 0 0 1-6.417 2.738c-4.532 0-8.389-3.23-8.389-9.289v-13.77h6.729v12.789a3.703 3.703 0 0 0 3.904 4.082c2.467 0 4.181-1.435 4.181-4.622V18.697h6.721ZM283.752 27.354V41.13h-6.73V27.94c0-2.243-1.078-3.68-3.23-3.68-2.245 0-3.499 1.571-3.499 4.218V41.13h-6.732V27.94c0-2.243-1.076-3.68-3.23-3.68-2.243 0-3.499 1.571-3.499 4.218V41.13h-6.73V18.697h6.74v2.055a6.894 6.894 0 0 1 6.013-2.691 6.68 6.68 0 0 1 5.878 2.96 7.386 7.386 0 0 1 6.507-2.96c5.149.008 8.512 3.686 8.512 9.293ZM289.454 18.558a4.995 4.995 0 1 0 0-9.99 4.995 4.995 0 0 0 0 9.99ZM71.454 8.378h6.732V41.13h-6.732V8.378Zm10.543 21.536A11.884 11.884 0 1 1 93.881 41.76a11.757 11.757 0 0 1-11.884-11.846Zm17.051 0a5.16 5.16 0 1 0-5.16 5.294 5.032 5.032 0 0 0 5.169-5.294h-.009Zm33.558-11.224v21.314c0 7.537-5.878 10.721-11.844 10.721a11.47 11.47 0 0 1-10.634-5.429l5.742-3.32a5.123 5.123 0 0 0 5.116 2.827 4.474 4.474 0 0 0 5.062-4.8V37.94a7.976 7.976 0 0 1-6.552 2.916 11.401 11.401 0 0 1 0-22.792 7.968 7.968 0 0 1 6.552 2.916V18.69h6.558Zm-6.55 10.768a5.428 5.428 0 0 0-3.197-5.178 5.437 5.437 0 0 0-7.548 3.812 5.44 5.44 0 0 0 2.27 5.647 5.435 5.435 0 0 0 3.042.932 5.077 5.077 0 0 0 5.433-5.206v-.007Zm10.361.44a11.881 11.881 0 0 1 7.31-11.005 11.883 11.883 0 1 1 4.573 22.851 11.762 11.762 0 0 1-10.997-7.28 11.743 11.743 0 0 1-.886-4.55v-.016Zm17.051 0a5.163 5.163 0 1 0-5.161 5.295 5.03 5.03 0 0 0 4.84-3.247 5.03 5.03 0 0 0 .321-2.032v-.016Z" fill="#fff"/></svg>
